X: 29019
T: Nearly Blue
R: reel
M: 4/4
K: Gmajor
EFGA BEFG|EFFE FA F/E/D|EGBe cAAA|B2 BG F3G|
EGBe cAAA|B2 B/c/d dAFG|A2 AG FD F/G/A|1 BE G/A/B AG F/E/D:|2 BEGB AGAB||
|:c2 ca geef|g2 ag beee|g2 ag b2ze|ga f/e/d edBG|
c3a geed|g2 ag b2 ze|gb f/e/d cA A/B/c|1 BEGB AGAB:|2 BEGB AGFD||

